X:66
T:Denis Murphy's
R:Slip Jig
C:Trad
M:6/8
L:1/8
K:D
B|:A2D FED|F2A A2f|g2ef2d|e2d Bcd|
 |A2D FED|F2A A2f|a2f efe|1d3 d2 B:|2d3 d2 A|
 |:d2e f3|gfe f3|gfef2d|e2dB2A|
 |d2e f3|gfe f2g|a2f efe|1d3 d2 A:|2d3 d2 B|
